packages/gatsby-theme-docs/src/icons/svg/search.svg

<?xml version="1.0" encoding="UTF-8"?>
<svg width="24px" height="24px" viewBox="0 0 24 24" version="1.1" xmlns="http://www.w3.org/2000/svg" xmlns:xlink="http://www.w3.org/1999/xlink">
    <!-- Generator: sketchtool 45.2 (43514) - http://www.bohemiancoding.com/sketch -->
    <title>search</title>
    <desc>Created with sketchtool.</desc>
    <defs></defs>
    <g id="Icons" stroke="none" stroke-width="1" fill-rule="evenodd">
        <g id="MC-icon-set" transform="translate(-96.000000, -744.000000)" fill="#000000">
            <g id="Actions" transform="translate(24.000000, 648.000000)">
                <g id="Search" transform="translate(72.000000, 96.000000)">
                    <path d="M5.55569462,12.1405048 C4.70069328,10.6520497 4.70069328,8.81819777 5.55569462,7.32974261 C6.41069595,5.84128746 7.99076092,4.92430489 9.70065109,4.92430489 C11.4105413,4.92430489 12.9906062,5.84128746 13.8456076,7.32974261 C14.7006089,8.81819777 14.7006089,10.6520497 13.8456076,12.1405048 C12.9906062,13.62896 11.4105413,14.5459426 9.70065109,14.5459426 C7.99076092,14.5459426 6.41069595,13.62896 5.55569462,12.1405048 M20.7362433,19.5679504 L15.0234844,13.8258282 C15.1974097,13.5970354 15.3581724,13.355903 15.5036352,13.1026573 C16.7005245,11.0188427 16.7005245,8.45140474 15.5036352,6.36759017 C14.3066333,4.28366238 12.0945423,3 9.70065109,3 C7.30675985,3 5.0946689,4.28366238 3.89766703,6.36759017 C2.70077766,8.45140474 2.70077766,11.0188427 3.89766703,13.1026573 C5.0946689,15.1864719 7.30675985,16.4702475 9.70065109,16.4702475 C11.1858784,16.4702475 12.6007931,15.9757561 13.7469449,15.1030378 L19.4626288,20.8481034 C19.6385791,21.0248206 19.8689795,21.1132358 20.0994923,21.1132358 C20.3300052,21.1132358 20.5604056,21.0248206 20.7362433,20.8481034 C21.0879189,20.4945556 21.0879189,19.9216113 20.7362433,19.5679504" id="shape"></path>
                </g>
            </g>
        </g>
    </g>
</svg>

<svg viewBox="0 0 24 24" width="24px" height="24px" xmlns="http://www.w3.org/2000/svg">
  <path d="M5.556 12.14a4.832 4.832 0 010-4.81A4.782 4.782 0 019.7 4.924c1.71 0 3.29.917 4.145 2.406a4.832 4.832 0 010 4.81A4.782 4.782 0 019.7 14.547c-1.71 0-3.29-.917-4.145-2.405m15.18 7.427l-5.713-5.742a6.752 6.752 0 00.48-7.458A6.694 6.694 0 009.702 3a6.694 6.694 0 00-5.803 3.368 6.765 6.765 0 000 6.735 6.676 6.676 0 009.85 2l5.715 5.745a.896.896 0 001.273 0 .909.909 0 000-1.28" fill-rule="evenodd"/>
</svg>
